images/vendors/vendor-platform.svg

<svg clip-rule="evenodd" fill-rule="evenodd" stroke-linejoin="round" stroke-miterlimit="2" viewBox="0 0 140 220" xmlns="http://www.w3.org/2000/svg"><g fill-rule="nonzero"><path d="m2.184-9.249h8.832l-7.066 14.131-5.299-7.066z" fill="#fce887" transform="matrix(-.69249 1.38498 1.38498 .69249 61.8366 166.715)"/><path d="m0-6.076-2.722-1.814-1.979-5.608-4.569 1.303-1.45 3.562-3.133 1.568 6.633 14.487z" fill="#6e5a4d" transform="matrix(1.27 0 0 1.27 88.254 82.2021)"/><path d="m0-12.067.996 5.3-1.371 6.767-2.471-1.386.707-5.82-.163 1.764-2.297-.571 1.938-4.311z" fill="#6e5a4d" transform="matrix(1.27 0 0 1.27 97.9871 133.732)"/><path d="m0 8.414 5.8-.149.067-8.265h-4.708" fill="#71964f" transform="matrix(1.27 0 0 1.27 69.886 208.998)"/><path d="m0-9.715.595 9.727h4.035l.669-1.897-1.191-7.842z" fill="#71964f" transform="matrix(1.27 0 0 1.27 80.1122 219.98)"/><path d="m-9.484-14.377h29.823l-.687 3.052-32.908.875z" fill="#6e5a4d" transform="matrix(.174381 1.25797 1.25797 -.174381 109.079 93.03)"/><path d="m0-45.243.171 45.208 4.108.035 5.261-45.243" fill="#6e5a4d" transform="matrix(1.27 0 0 1.27 79.8956 207.626)"/><path d="m0-62.05 1.099 18.616-2.185 43.434h-4.708l-1.865-43.22z" fill="#513f37" transform="matrix(1.27 0 0 1.27 78.7159 208.997)"/><path d="m0 22.275.964-22.275 2.822 3.932-.6 15.958" fill="#6e5a4d" transform="matrix(1.27 0 0 1.27 63.2841 75.6195)"/><path d="m0-66.347 5.476-2.259 2.185 5.381 7.732.224 2.601-4.796 4.984 3.422-3.347 4.422-.415 18.626 6.922 43.362-28.665.224 6.616-43.106-1.261-21.485z" fill="#71974f" transform="matrix(1.27 0 0 1.27 64.5553 159.817)"/><path d="m0 14.485-1.88-14.366-6.691-3.285.008-.116-6.563 4.081-1.28 13.367 1.679 3.12 12.468.481z" fill="#55433b" transform="matrix(1.27 0 0 1.27 89.925 47.8726)"/><path d="m-27.007-9.598h41.465l-4.233-28.352-39.257 12.386z" fill="#e5e3de" transform="matrix(.19731 1.25458 1.25458 -.19731 106.941 142.369)"/><path d="m-16.469 2.641h16.469l-.48-2.641h-15.509z" fill="#55433b" transform="matrix(-1.27 0 0 1.27 69.0094 109.162)"/><path d="m0 15.254h3.268l3.52-4.525-.629-9.681-6.278-1.048-3.902 1.552.126 9.177z" fill="#6e5a4d" transform="matrix(1.27 0 0 1.27 77.8374 51.0636)"/><path d="m0-12.784-7.9 11.658 1.679 1.126 9.118-11.816" fill="#6e5a4d" transform="matrix(1.27 0 0 1.27 63.65 115.886)"/><path d="m-5.91 1.996h3.293l1.449-4.638-1.454-.349-2.626 3.077" fill="#6e5a4d" transform="matrix(-1.01373 .76502 .76502 1.01373 48.2306 118.385)"/><path d="m.417 4.625h4.416l1.767-3.533-2.65-3.533-1.063-.475-3.565 7.002z" fill="#e49f7b" transform="matrix(.74994 -1.49988 -1.49988 -.74994 35.097421 175.599)"/><path d="m.417 4.625h4.416l1.767-3.533-2.65-3.533z" fill="#e49f7b" transform="matrix(.74994 -1.49988 -1.49988 -.74994 25.287521 175.599)"/><path d="m.417 4.625h4.416l1.767-3.533-2.65-3.533z" fill="#a02e2c" transform="matrix(.567961 -1.13592 -1.13592 -.567961 19.879521 178.487)"/><path d="m.417 4.625h4.416l1.767-3.533-2.65-3.533z" fill="#77272c" transform="matrix(.724656 -1.44931 -1.44931 -.724656 27.883521 178.803)"/><path d="m.417 4.625h4.416l1.767-3.533-2.65-3.533z" fill="#a02e2c" transform="matrix(.724656 -1.44931 -1.44931 -.724656 38.983121 178.803)"/><path d="m.417 4.625h4.416l1.767-3.533-2.65-3.533z" fill="#a02e2c" transform="matrix(.567961 -1.13592 -1.13592 -.567961 49.934 118.498)"/><path d="m.417 4.625h4.416l1.767-3.533-2.65-3.533-1.063-.475-3.565 7.002z" fill="#93b873" transform="matrix(-.74994 -1.49988 1.49988 -.74994 76.6441 176.64391)"/><path d="m.417 4.625h4.416l1.767-3.533-2.65-3.533z" fill="#93b873" transform="matrix(-.74994 -1.49988 1.49988 -.74994 86.454 176.64391)"/><path d="m.417 4.625h4.416l1.767-3.533-2.65-3.533z" fill="#71974f" transform="matrix(-.567961 -1.13592 1.13592 -.567961 91.862 179.53191)"/><path d="m.417 4.625h4.416l1.767-3.533-2.65-3.533z" fill="#4b8046" transform="matrix(-.724656 -1.44931 1.44931 -.724656 83.858 179.84791)"/><path d="m.417 4.625h4.416l1.767-3.533-2.65-3.533z" fill="#4b8046" transform="matrix(-.724656 -1.44931 1.44931 -.724656 72.7584 179.84791)"/><path d="m.417 4.625h4.416l1.767-3.533-2.65-3.533-1.063-.475-3.565 7.002z" fill="#93b873" transform="matrix(-.74994 -1.49988 1.49988 -.74994 86.7761 176.64391)"/><path d="m.417 4.625h4.416l1.767-3.533-2.65-3.533z" fill="#93b873" transform="matrix(-.74994 -1.49988 1.49988 -.74994 96.586 176.64391)"/><path d="m.417 4.625h4.416l1.767-3.533-2.65-3.533z" fill="#71974f" transform="matrix(-.567961 -1.13592 1.13592 -.567961 101.994 179.53191)"/><path d="m.417 4.625h4.416l1.767-3.533-2.65-3.533z" fill="#4b8046" transform="matrix(-.724656 -1.44931 1.44931 -.724656 93.99 179.84791)"/><path d="m.417 4.625h4.416l1.767-3.533-2.65-3.533z" fill="#71974f" transform="matrix(-.724656 -1.44931 1.44931 -.724656 82.8904 179.84791)"/><path d="m.417 4.625h4.416l1.767-3.533-2.65-3.533-1.063-.475-3.565 7.002z" fill="#93b873" transform="matrix(-.74994 -1.49988 1.49988 -.74994 107.3421 176.64391)"/><path d="m.417 4.625h4.416l1.767-3.533-2.65-3.533z" fill="#93b873" transform="matrix(-.74994 -1.49988 1.49988 -.74994 117.152 176.64391)"/><path d="m.417 4.625h4.416l1.767-3.533-2.65-3.533z" fill="#71974f" transform="matrix(-.567961 -1.13592 1.13592 -.567961 122.56 179.53191)"/><path d="m.417 4.625h4.416l1.767-3.533-2.65-3.533z" fill="#4b8046" transform="matrix(-.724656 -1.44931 1.44931 -.724656 114.556 179.84791)"/><path d="m.417 4.625h4.416l1.767-3.533-2.65-3.533z" fill="#71974f" transform="matrix(-.724656 -1.44931 1.44931 -.724656 103.4564 179.84791)"/></g><path d="m1422 406.85h94.8v35.55h-94.8z" fill="#c2beba" transform="matrix(-1.27 0 0 1.27 1936.14 -341.853)"/></svg>

<?xml version="1.0" encoding="UTF-8" standalone="no"?>
<!DOCTYPE svg PUBLIC "-//W3C//DTD SVG 1.1//EN" "http://www.w3.org/Graphics/SVG/1.1/DTD/svg11.dtd">
<svg width="100%" height="100%" viewBox="0 0 140 220" version="1.1" xmlns="http://www.w3.org/2000/svg" xmlns:xlink="http://www.w3.org/1999/xlink" xml:space="preserve" xmlns:serif="http://www.serif.com/" style="fill-rule:evenodd;clip-rule:evenodd;stroke-linejoin:round;stroke-miterlimit:2;">
    <g id="vendor-platform">
        <g transform="matrix(1.27,0,0,1.27,88.254,82.2021)">
            <path d="M0,-6.076L-2.722,-7.89L-4.701,-13.498L-9.27,-12.195L-10.72,-8.633L-13.853,-7.065L-7.22,7.422L0,-6.076Z" style="fill:rgb(110,90,77);fill-rule:nonzero;"/>
        </g>
        <g transform="matrix(1.27,0,0,1.27,97.9871,133.732)">
            <path d="M0,-12.067L0.996,-6.767L-0.375,0L-2.846,-1.386L-2.139,-7.206L-2.302,-5.442L-4.599,-6.013L-2.661,-10.324L0,-12.067Z" style="fill:rgb(110,90,77);fill-rule:nonzero;"/>
        </g>
        <g transform="matrix(1.27,0,0,1.27,69.886,208.998)">
            <path d="M0,8.414L5.8,8.265L5.867,0L1.159,0" style="fill:rgb(113,150,79);fill-rule:nonzero;"/>
        </g>
        <g transform="matrix(1.27,0,0,1.27,80.1122,219.98)">
            <path d="M0,-9.715L0.595,0.012L4.63,0.012L5.299,-1.885L4.108,-9.727L0,-9.715Z" style="fill:rgb(113,150,79);fill-rule:nonzero;"/>
        </g>
        <g transform="matrix(0.174381,1.25797,1.25797,-0.174381,109.079,93.03)">
            <path d="M-9.484,-14.377L20.339,-14.377L19.652,-11.325L-13.256,-10.45L-9.484,-14.377Z" style="fill:rgb(110,90,77);fill-rule:nonzero;"/>
        </g>
        <g transform="matrix(1.27,0,0,1.27,79.8956,207.626)">
            <path d="M0,-45.243L0.171,-0.035L4.279,0L9.54,-45.243" style="fill:rgb(110,90,77);fill-rule:nonzero;"/>
        </g>
        <g transform="matrix(1.27,0,0,1.27,78.7159,208.997)">
            <path d="M0,-62.05L1.099,-43.434L-1.086,0L-5.794,0L-7.659,-43.22L0,-62.05Z" style="fill:rgb(81,63,55);fill-rule:nonzero;"/>
        </g>
        <g transform="matrix(1.27,0,0,1.27,63.2841,75.6195)">
            <path d="M0,22.275L0.964,0L3.786,3.932L3.186,19.89" style="fill:rgb(110,90,77);fill-rule:nonzero;"/>
        </g>
        <g transform="matrix(1.27,0,0,1.27,64.5553,159.817)">
            <path d="M0,-66.347L5.476,-68.606L7.661,-63.225L15.393,-63.001L17.994,-67.797L22.978,-64.375L19.631,-59.953L19.216,-41.327L26.138,2.035L-2.527,2.259L4.089,-40.847L2.828,-62.332L0,-66.347Z" style="fill:rgb(113,151,79);fill-rule:nonzero;"/>
        </g>
        <g transform="matrix(1.27,0,0,1.27,89.925,47.8726)">
            <path d="M0,14.485L-1.88,0.119L-8.571,-3.166L-8.563,-3.282L-15.126,0.799L-16.406,14.166L-14.727,17.286L-2.259,17.767L0,14.485Z" style="fill:rgb(85,67,59);fill-rule:nonzero;"/>
        </g>
        <g transform="matrix(0.19731,1.25458,1.25458,-0.19731,106.941,142.369)">
            <path d="M-27.007,-9.598L14.458,-9.598L10.225,-37.95L-29.032,-25.564L-27.007,-9.598Z" style="fill:rgb(229,227,222);fill-rule:nonzero;"/>
        </g>
        <g transform="matrix(-1.27,0,0,1.27,69.0094,109.162)">
            <path d="M-16.469,2.641L0,2.641L-0.48,0L-15.989,0L-16.469,2.641Z" style="fill:rgb(85,67,59);fill-rule:nonzero;"/>
        </g>
        <g transform="matrix(1.27,0,0,1.27,77.8374,51.0636)">
            <path d="M0,15.254L3.268,15.254L6.788,10.729L6.159,1.048L-0.119,0L-4.021,1.552L-3.895,10.729L0,15.254Z" style="fill:rgb(110,90,77);fill-rule:nonzero;"/>
        </g>
        <g transform="matrix(1.27,0,0,1.27,63.65,115.886)">
            <path d="M0,-12.784L-7.9,-1.126L-6.221,0L2.897,-11.816" style="fill:rgb(110,90,77);fill-rule:nonzero;"/>
        </g>
        <g transform="matrix(-1.01373,0.76502,0.76502,1.01373,48.2306,118.385)">
            <path d="M-5.91,1.996L-2.617,1.996L-1.168,-2.642L-2.622,-2.991L-5.248,0.086" style="fill:rgb(110,90,77);fill-rule:nonzero;"/>
        </g>
        <g transform="matrix(0.567961,-1.13592,-1.13592,-0.567961,49.934,118.498)">
            <path d="M0.417,4.625L4.833,4.625L6.6,1.092L3.95,-2.441L0.417,4.625Z" style="fill:rgb(160,46,44);fill-rule:nonzero;"/>
        </g>
        <g transform="matrix(0.567961,-1.13592,-1.13592,-0.567961,32.3445,175.407)">
            <path d="M0.417,4.625L4.833,4.625L6.6,1.092L3.95,-2.441L0.417,4.625Z" style="fill:rgb(228,159,123);fill-rule:nonzero;"/>
        </g>
        <g transform="matrix(0.567961,-1.13592,-1.13592,-0.567961,69.619,180.041)">
            <path d="M0.417,4.625L4.833,4.625L6.6,1.092L3.95,-2.441L0.417,4.625Z" style="fill:rgb(75,128,70);fill-rule:nonzero;"/>
        </g>
        <g transform="matrix(-0.567961,1.13592,1.13592,0.567961,61.6808,167.587)">
            <path d="M2.184,-9.249L11.016,-9.249L3.95,4.882L-1.349,-2.184L2.184,-9.249Z" style="fill:rgb(252,232,135);fill-rule:nonzero;"/>
        </g>
        <g transform="matrix(0.567961,-1.13592,-1.13592,-0.567961,74.699,175.407)">
            <path d="M0.417,4.625L4.833,4.625L6.6,1.092L3.95,-2.441L0.417,4.625Z" style="fill:rgb(147,184,115);fill-rule:nonzero;"/>
        </g>
        <g transform="matrix(0.567961,-1.13592,-1.13592,-0.567961,89.939,175.407)">
            <path d="M0.417,4.625L4.833,4.625L6.6,1.092L3.95,-2.441L0.417,4.625Z" style="fill:rgb(147,184,115);fill-rule:nonzero;"/>
        </g>
        <g transform="matrix(0.567961,-1.13592,-1.13592,-0.567961,78.509,177.947)">
            <path d="M0.417,4.625L4.833,4.625L6.6,1.092L3.95,-2.441L0.417,4.625Z" style="fill:rgb(75,128,70);fill-rule:nonzero;"/>
        </g>
        <g transform="matrix(0.567961,-1.13592,-1.13592,-0.567961,84.859,179.217)">
            <path d="M0.417,4.625L4.833,4.625L6.6,1.092L3.95,-2.441L0.417,4.625Z" style="fill:rgb(113,151,79);fill-rule:nonzero;"/>
        </g>
        <g transform="matrix(0.567961,-1.13592,-1.13592,-0.567961,92.479,177.947)">
            <path d="M0.417,4.625L4.833,4.625L6.6,1.092L3.95,-2.441L0.417,4.625Z" style="fill:rgb(75,128,70);fill-rule:nonzero;"/>
        </g>
        <g transform="matrix(0.567961,-1.13592,-1.13592,-0.567961,24.915,175.407)">
            <path d="M0.417,4.625L4.833,4.625L6.6,1.092L3.95,-2.441L0.417,4.625Z" style="fill:rgb(228,159,123);fill-rule:nonzero;"/>
        </g>
        <g transform="matrix(0.567961,-1.13592,-1.13592,-0.567961,19.835,180.487)">
            <path d="M0.417,4.625L4.833,4.625L6.6,1.092L3.95,-2.441L0.417,4.625Z" style="fill:rgb(160,46,44);fill-rule:nonzero;"/>
        </g>
        <g transform="matrix(0.567961,-1.13592,-1.13592,-0.567961,27.455,177.947)">
            <path d="M0.417,4.625L4.833,4.625L6.6,1.092L3.95,-2.441L0.417,4.625Z" style="fill:rgb(119,39,44);fill-rule:nonzero;"/>
        </g>
        <g transform="matrix(-0.567961,-1.13592,-1.13592,0.567961,39.901,164.19)">
            <path d="M-7.483,-0.675L-3.067,-0.675L-1.3,2.858L-3.95,6.391L-7.483,-0.675Z" style="fill:rgb(228,159,123);fill-rule:nonzero;"/>
        </g>
        <g transform="matrix(-0.567961,-1.13592,-1.13592,0.567961,44.7905,166.73)">
            <path d="M-7.483,-0.675L-3.067,-0.675L-1.3,2.858L-3.95,6.391L-7.483,-0.675Z" style="fill:rgb(119,39,44);fill-rule:nonzero;"/>
        </g>
        <g transform="matrix(0.567961,-1.13592,-1.13592,-0.567961,36.1545,177.947)">
            <path d="M0.417,4.625L4.833,4.625L6.6,1.092L3.95,-2.441L0.417,4.625Z" style="fill:rgb(160,46,44);fill-rule:nonzero;"/>
        </g>
        <g transform="matrix(0.567961,-1.13592,-1.13592,-0.567961,100.099,177.947)">
            <path d="M0.417,4.625L4.833,4.625L6.6,1.092L3.95,-2.441L0.417,4.625Z" style="fill:rgb(147,184,115);fill-rule:nonzero;"/>
        </g>
        <g transform="matrix(0.567961,-1.13592,-1.13592,-0.567961,110.005,175.407)">
            <path d="M0.417,4.625L4.833,4.625L6.6,1.092L3.95,-2.441L0.417,4.625Z" style="fill:rgb(147,184,115);fill-rule:nonzero;"/>
        </g>
        <g transform="matrix(0.567961,-1.13592,-1.13592,-0.567961,104.925,179.217)">
            <path d="M0.417,4.625L4.833,4.625L6.6,1.092L3.95,-2.441L0.417,4.625Z" style="fill:rgb(113,151,79);fill-rule:nonzero;"/>
        </g>
        <g transform="matrix(0.567961,-1.13592,-1.13592,-0.567961,112.545,177.947)">
            <path d="M0.417,4.625L4.833,4.625L6.6,1.092L3.95,-2.441L0.417,4.625Z" style="fill:rgb(75,128,70);fill-rule:nonzero;"/>
        </g>
        <g transform="matrix(0.567961,-1.13592,-1.13592,-0.567961,120.165,177.947)">
            <path d="M0.417,4.625L4.833,4.625L6.6,1.092L3.95,-2.441L0.417,4.625Z" style="fill:rgb(147,184,115);fill-rule:nonzero;"/>
        </g>
        <g transform="matrix(-1.27,0,0,1.27,1936.14,-341.853)">
            <rect x="1422" y="406.85" width="94.8" height="35.55" style="fill:rgb(194,190,186);"/>
        </g>
    </g>
</svg>
